; generated by PrusaSlicer 2.2.0+linux-x64 on 2020-11-26 at 09:18:36 UTC

; 

; external perimeters extrusion width = 0.45mm
; perimeters extrusion width = 0.45mm
; infill extrusion width = 0.45mm
; solid infill extrusion width = 0.45mm
; top infill extrusion width = 0.40mm
; first layer extrusion width = 0.42mm

M73 P0 R10
M73 Q0 S10
M201 X1000 Y1000 Z200 E5000 ; sets maximum accelerations, mm/sec^2
M203 X200 Y200 Z12 E120 ; sets maximum feedrates, mm/sec
M204 P1250 R1250 T1250 ; sets acceleration (P, T) and retract acceleration (R), mm/sec^2
M205 X8.00 Y8.00 Z0.40 E4.50 ; sets the jerk limits, mm/sec
M205 S0 T0 ; sets the minimum extruding and travel feed rate, mm/sec
M107
M862.3 P "MK3SMMU2S" ; printer model check
M862.1 P0.4 ; nozzle diameter check
M115 U3.9.1 ; tell printer latest fw version
G90 ; use absolute coordinates
M83 ; extruder relative mode
M104 S215 ; set extruder temp
M140 S60 ; set bed temp
Tx
M190 S60 ; wait for bed temp
M109 S215 ; wait for extruder temp
G28 W ; home all without mesh bed level
G80 ; mesh bed leveling

;go outside print area
G1 Y-3.0 F1000.0
G1 Z0.4 F1000.0
; select extruder
Tc
; purge line
G1 X55.0 F2000.0
G1 Z0.3 F1000.0
G92 E0.0
G1 X240.0 E25.0 F2200.0
M73 Q1 S10
M73 P1 R10
G1 Y-2.0 F1000.0
G1 X55.0 E25 F1400.0
G1 Z0.20 F1000.0
G1 X5.0 E4.0 F1000.0

M221 S95
G92 E0.0

; Don't change E values below. Excessive value can damage the printer.
M907 E430 ; set extruder motor current
G21 ; set units to millimeters
G90 ; use absolute coordinates
M83 ; use relative distances for extrusion
M900 K0.05 ; Filament gcode LA 1.5
M900 K30 ; Filament gcode LA 1.0
;BEFORE_LAYER_CHANGE
G92 E0.0
;0.2


G1 E-0.80000 F2100.00000
G1 Z0.600 F10800.000
;AFTER_LAYER_CHANGE
;0.2
G1 X113.604 Y105.462
G1 Z0.200
G1 E0.80000 F2100.00000
M204 S1000
G1 F934
G1 X114.304 Y104.383 E0.04032
G1 X122.967 Y95.038 E0.39954
G1 X123.642 Y94.393 E0.02927
G1 X125.052 Y93.538 E0.05170
G1 X126.018 Y93.206 E0.03204
G1 X127.284 Y93.037 E0.04004
G1 X128.618 Y93.156 E0.04199
G1 X129.540 Y93.410 E0.03001
G1 X130.449 Y93.843 E0.03155
G1 X131.589 Y94.694 E0.04462
G1 X132.489 Y95.789 E0.04443
G1 X133.049 Y96.903 E0.03908
G1 X137.004 Y109.664 E0.41891
G1 X137.147 Y110.950 E0.04057
G1 X137.019 Y112.197 E0.03930
G1 X136.620 Y113.424 E0.04045
G1 X136.075 Y114.377 E0.03442
G1 X135.731 Y114.825 E0.01771
G1 X134.821 Y115.703 E0.03964
G1 X133.878 Y116.310 E0.03519
G1 X132.617 Y116.784 E0.04223
G1 X131.422 Y116.963 E0.03789
G1 X130.113 Y116.880 E0.04112
G1 X116.957 Y113.832 E0.42342
G1 X115.767 Y113.251 E0.04153
G1 X115.038 Y112.717 E0.02835
G1 X114.379 Y112.047 E0.02944
G1 X113.629 Y110.934 E0.04210
G1 X113.159 Y109.705 E0.04127
G1 X112.973 Y108.504 E0.03811
G1 X112.983 Y107.599 E0.02836
G1 X113.146 Y106.691 E0.02893
G1 X113.583 Y105.518 E0.03926
G1 X113.934 Y105.650 F10800.000
G1 F934
G1 X114.593 Y104.624 E0.03823
G1 X123.881 Y94.685 E0.42654
G1 X125.182 Y93.892 E0.04775
G1 X126.095 Y93.575 E0.03029
G1 X127.285 Y93.414 E0.03766
G1 X128.523 Y93.521 E0.03895
G1 X129.408 Y93.764 E0.02879
G1 X130.274 Y94.177 E0.03010
G1 X131.335 Y94.973 E0.04156
G1 X132.174 Y95.998 E0.04155
G1 X132.691 Y97.020 E0.03590
G1 X136.635 Y109.739 E0.41753
G1 X136.770 Y110.952 E0.03828
G1 X136.649 Y112.125 E0.03696
G1 X136.273 Y113.278 E0.03803
G1 X135.757 Y114.174 E0.03243
G1 X135.459 Y114.564 E0.01538
G1 X134.607 Y115.393 E0.03727
G1 X133.720 Y115.968 E0.03314
G1 X132.544 Y116.414 E0.03945
G1 X131.416 Y116.586 E0.03577
G1 X130.182 Y116.509 E0.03876
G1 X117.096 Y113.482 E0.42115
G1 X115.980 Y112.940 E0.03887
G1 X115.273 Y112.423 E0.02747
G1 X114.659 Y111.794 E0.02758
G1 X113.964 Y110.762 E0.03899
G1 X113.524 Y109.619 E0.03841
G1 X113.347 Y108.488 E0.03589
G1 X113.359 Y107.631 E0.02686
G1 X113.517 Y106.758 E0.02782
G1 X113.913 Y105.706 E0.03524
G1 F8640.000
G1 X114.593 Y104.624 E-0.29511
G1 X115.968 Y103.153 E-0.46489
G1 E-0.04000 F2100.00000
G1 Z0.800 F10800.000
G1 X129.043 Y110.448
G1 Z0.200
G1 E0.80000 F2100.00000
G1 F934
G1 X129.228 Y109.961 E0.01635
G1 X129.524 Y109.532 E0.01635
G1 X129.914 Y109.186 E0.01635
G1 X130.376 Y108.943 E0.01635
G1 X130.882 Y108.819 E0.01635
G1 X131.404 Y108.819 E0.01635
G1 X131.910 Y108.943 E0.01635
G1 X132.372 Y109.186 E0.01635
G1 X132.762 Y109.532 E0.01635
G1 X133.058 Y109.961 E0.01635
G1 X133.243 Y110.448 E0.01635
G1 X133.306 Y110.966 E0.01635
G1 X133.243 Y111.483 E0.01635
G1 X133.058 Y111.971 E0.01635
G1 X132.762 Y112.400 E0.01635
G1 X132.372 Y112.746 E0.01635
G1 X131.910 Y112.988 E0.01635
G1 X131.404 Y113.113 E0.01635
G1 X130.882 Y113.113 E0.01635
G1 X130.376 Y112.988 E0.01635
G1 X129.914 Y112.746 E0.01635
G1 X129.524 Y112.400 E0.01635
G1 X129.228 Y111.971 E0.01635
G1 X129.043 Y111.483 E0.01635
G1 X128.980 Y110.966 E0.01635
G1 X129.036 Y110.508 E0.01447
G1 X128.754 Y110.171 F10800.000
G1 X128.322 Y110.659
G1 F934
G1 X128.454 Y110.060 E0.01924
G1 X128.712 Y109.503 E0.01924
G1 X129.083 Y109.014 E0.01924
G1 X129.551 Y108.617 E0.01924
G1 X130.093 Y108.330 E0.01924
G1 X130.684 Y108.166 E0.01924
G1 X131.297 Y108.132 E0.01924
G1 X131.902 Y108.232 E0.01924
G1 X132.472 Y108.459 E0.01924
G1 X132.980 Y108.803 E0.01924
G1 X133.402 Y109.249 E0.01924
G1 X133.718 Y109.774 E0.01924
G1 X133.914 Y110.356 E0.01924
G1 X133.981 Y110.966 E0.01924
G1 X133.914 Y111.576 E0.01924
G1 X133.718 Y112.157 E0.01924
G1 X133.402 Y112.683 E0.01924
G1 X132.980 Y113.129 E0.01924
G1 X132.472 Y113.473 E0.01924
G1 X131.902 Y113.700 E0.01924
G1 X131.297 Y113.799 E0.01924
G1 X130.684 Y113.766 E0.01924
G1 X130.093 Y113.602 E0.01924
G1 X129.551 Y113.314 E0.01924
G1 X129.083 Y112.917 E0.01924
G1 X128.712 Y112.429 E0.01924
G1 X128.454 Y111.872 E0.01924
G1 X128.322 Y111.273 E0.01924
G1 X128.322 Y110.719 E0.01736
G1 X128.688 Y110.498 F10800.000
G1 X128.727 Y110.353
G1 F934
G1 X128.781 Y110.170 E0.00445
G1 X129.006 Y109.680 E0.01257
G1 X129.331 Y109.249 E0.01258
G1 X129.740 Y108.897 E0.01260
G1 X130.241 Y108.636 E0.01316
G1 X130.739 Y108.503 E0.01204
G1 X131.278 Y108.476 E0.01258
G1 X131.460 Y108.493 E0.00427
G1 X131.810 Y108.565 E0.00832
G1 X132.043 Y108.642 E0.00572
G1 X132.310 Y108.765 E0.00687
G1 X132.545 Y108.905 E0.00638
G1 X132.756 Y109.067 E0.00620
G1 X132.997 Y109.300 E0.00783
G1 X133.127 Y109.457 E0.00475
G1 X133.343 Y109.792 E0.00928
G1 X133.407 Y109.918 E0.00331
G1 X133.582 Y110.429 E0.01259
G1 X133.643 Y110.966 E0.01260
G1 X133.572 Y111.546 E0.01364
G1 X133.407 Y112.013 E0.01155
G1 X133.127 Y112.474 E0.01258
G1 X132.997 Y112.631 E0.00475
G1 X132.756 Y112.865 E0.00783
G1 X132.545 Y113.026 E0.00620
G1 X132.310 Y113.167 E0.00638
G1 X132.043 Y113.290 E0.00687
G1 X131.810 Y113.367 E0.00572
G1 X131.460 Y113.439 E0.00832
G1 X131.278 Y113.455 E0.00427
G1 X130.739 Y113.428 E0.01258
G1 X130.241 Y113.295 E0.01204
G1 X129.738 Y113.033 E0.01323
G1 X129.331 Y112.682 E0.01253
G1 X129.006 Y112.252 E0.01258
G1 X128.781 Y111.762 E0.01257
G1 X128.719 Y111.546 E0.00524
G1 X128.666 Y111.235 E0.00735
G1 X128.651 Y110.949 E0.00669
G1 X128.666 Y110.696 E0.00590
G1 X128.715 Y110.412 E0.00674
G1 F8640.000
G1 X128.781 Y110.170 E-0.05784
G1 X129.006 Y109.680 E-0.12448
G1 X129.331 Y109.249 E-0.12458
G1 X129.740 Y108.897 E-0.12472
G1 X130.241 Y108.636 E-0.13027
G1 X130.739 Y108.503 E-0.11916
G1 X131.081 Y108.486 E-0.07896
G1 E-0.04000 F2100.00000
G1 Z0.800 F10800.000
G1 X127.705 Y101.184
G1 Z0.200
G1 E0.80000 F2100.00000
G1 F934
G1 X127.183 Y101.184 E0.01635
G1 X126.677 Y101.059 E0.01635
G1 X126.215 Y100.817 E0.01635
G1 X125.825 Y100.471 E0.01635
G1 X125.529 Y100.042 E0.01635
G1 X125.344 Y99.554 E0.01635
G1 X125.281 Y99.037 E0.01635
G1 X125.344 Y98.519 E0.01635
G1 X125.529 Y98.031 E0.01635
G1 X125.825 Y97.602 E0.01635
G1 X126.215 Y97.257 E0.01635
G1 X126.677 Y97.014 E0.01635
G1 X127.183 Y96.889 E0.01635
G1 X127.705 Y96.889 E0.01635
G1 X128.211 Y97.014 E0.01635
G1 X128.673 Y97.257 E0.01635
G1 X129.063 Y97.602 E0.01635
G1 X129.359 Y98.031 E0.01635
G1 X129.544 Y98.519 E0.01635
G1 X129.607 Y99.037 E0.01635
G1 X129.544 Y99.554 E0.01635
G1 X129.359 Y100.042 E0.01635
G1 X129.063 Y100.471 E0.01635
G1 X128.673 Y100.817 E0.01635
G1 X128.211 Y101.059 E0.01635
G1 X127.763 Y101.170 E0.01447
G1 X127.548 Y101.552 F10800.000
G1 X127.797 Y101.846
G1 F934
G1 X127.300 Y101.871 E0.01560
G1 X126.733 Y101.784 E0.01800
G1 X126.194 Y101.585 E0.01800
G1 X125.707 Y101.281 E0.01800
G1 X125.291 Y100.885 E0.01800
G1 X124.963 Y100.414 E0.01800
G1 X124.736 Y99.886 E0.01800
G1 X124.621 Y99.324 E0.01800
G1 X124.621 Y98.750 E0.01800
G1 X124.736 Y98.187 E0.01800
G1 X124.963 Y97.659 E0.01800
G1 X125.291 Y97.188 E0.01800
G1 X125.707 Y96.793 E0.01800
G1 X126.194 Y96.489 E0.01800
G1 X126.733 Y96.289 E0.01800
G1 X127.300 Y96.202 E0.01800
G1 X127.874 Y96.232 E0.01800
G1 X128.429 Y96.375 E0.01800
G1 X128.945 Y96.628 E0.01800
G1 X129.399 Y96.980 E0.01800
G1 X129.773 Y97.415 E0.01800
G1 X130.052 Y97.918 E0.01800
G1 X130.224 Y98.465 E0.01800
G1 X130.282 Y99.037 E0.01800
G1 X130.224 Y99.608 E0.01800
G1 X130.052 Y100.156 E0.01800
G1 X129.773 Y100.658 E0.01800
G1 X129.399 Y101.094 E0.01800
G1 X128.945 Y101.445 E0.01800
G1 X128.429 Y101.698 E0.01800
G1 X127.857 Y101.843 E0.01851
G1 X127.549 Y101.532 F10800.000
G1 X127.822 Y101.505
G1 F934
G1 X127.318 Y101.527 E0.01187
G1 X127.126 Y101.510 E0.00452
G1 X126.819 Y101.449 E0.00736
G1 X126.576 Y101.374 E0.00600
G1 X126.346 Y101.274 E0.00588
G1 X125.917 Y101.009 E0.01187
G1 X125.562 Y100.680 E0.01139
G1 X125.260 Y100.249 E0.01239
G1 X125.064 Y99.783 E0.01188
G1 X124.965 Y99.289 E0.01186
G1 X124.950 Y99.054 E0.00554
G1 X124.965 Y98.785 E0.00634
G1 X125.064 Y98.290 E0.01186
G1 X125.240 Y97.860 E0.01092
G1 X125.548 Y97.409 E0.01285
G1 X125.917 Y97.064 E0.01188
G1 X126.346 Y96.799 E0.01187
G1 X126.576 Y96.699 E0.00588
G1 X126.819 Y96.624 E0.00600
G1 X127.126 Y96.563 E0.00736
G1 X127.318 Y96.547 E0.00452
G1 X127.822 Y96.569 E0.01187
G1 X128.314 Y96.693 E0.01193
G1 X128.847 Y96.973 E0.01417
G1 X129.161 Y97.230 E0.00954
G1 X129.321 Y97.396 E0.00543
G1 X129.489 Y97.613 E0.00645
G1 X129.644 Y97.863 E0.00691
G1 X129.735 Y98.054 E0.00497
G1 X129.889 Y98.534 E0.01187
G1 X129.944 Y99.037 E0.01189
G1 X129.889 Y99.539 E0.01189
G1 X129.735 Y100.020 E0.01187
G1 X129.644 Y100.211 E0.00497
G1 X129.489 Y100.460 E0.00691
G1 X129.321 Y100.677 E0.00645
G1 X129.161 Y100.843 E0.00543
G1 X128.764 Y101.154 E0.01187
G1 X128.314 Y101.380 E0.01185
G1 X127.880 Y101.490 E0.01052
G1 F8640.000
G1 X127.318 Y101.527 E-0.13017
G1 X127.126 Y101.510 E-0.04433
G1 X126.819 Y101.449 E-0.07229
G1 X126.576 Y101.374 E-0.05885
G1 X126.346 Y101.274 E-0.05776
G1 X125.917 Y101.009 E-0.11649
G1 X125.562 Y100.680 E-0.11176
G1 X125.260 Y100.249 E-0.12160
G1 X125.182 Y100.062 E-0.04676
G1 E-0.04000 F2100.00000
G1 Z0.800 F10800.000
G1 X120.579 Y106.738
G1 Z0.200
G1 E0.80000 F2100.00000
G1 F934
G1 X120.855 Y107.139 E0.01527
G1 X121.060 Y107.653 E0.01735
G1 X121.123 Y108.172 E0.01640
G1 X121.060 Y108.690 E0.01635
G1 X120.875 Y109.178 E0.01635
G1 X120.579 Y109.607 E0.01635
G1 X120.188 Y109.952 E0.01635
G1 X119.727 Y110.195 E0.01635
G1 X119.220 Y110.320 E0.01635
G1 X118.699 Y110.320 E0.01635
G1 X118.193 Y110.195 E0.01635
G1 X117.731 Y109.952 E0.01635
G1 X117.341 Y109.607 E0.01635
G1 X117.044 Y109.178 E0.01635
G1 X116.860 Y108.690 E0.01635
G1 X116.801 Y108.206 E0.01527
G1 X116.859 Y107.656 E0.01735
G1 X117.044 Y107.167 E0.01640
G1 X117.341 Y106.738 E0.01635
G1 X117.731 Y106.392 E0.01635
G1 X118.193 Y106.150 E0.01635
G1 X118.699 Y106.025 E0.01635
G1 X119.220 Y106.025 E0.01635
G1 X119.693 Y106.142 E0.01527
G1 X120.187 Y106.391 E0.01735
G1 X120.534 Y106.698 E0.01452
G1 X120.970 Y106.656 F10800.000
G1 X121.066 Y106.280
G1 F934
G1 X121.347 Y106.638 E0.01428
G1 X121.595 Y107.117 E0.01692
G1 X121.747 Y107.635 E0.01692
G1 X121.798 Y108.172 E0.01692
G1 X121.747 Y108.709 E0.01692
G1 X121.595 Y109.227 E0.01692
G1 X121.347 Y109.707 E0.01692
G1 X121.014 Y110.131 E0.01692
G1 X120.606 Y110.484 E0.01692
G1 X120.139 Y110.754 E0.01692
G1 X119.629 Y110.930 E0.01692
G1 X119.095 Y111.007 E0.01692
G1 X118.556 Y110.982 E0.01692
G1 X118.031 Y110.854 E0.01692
G1 X117.541 Y110.630 E0.01692
G1 X117.101 Y110.317 E0.01692
G1 X116.729 Y109.927 E0.01692
G1 X116.437 Y109.473 E0.01692
G1 X116.237 Y108.972 E0.01692
G1 X116.134 Y108.442 E0.01692
G1 X116.134 Y107.903 E0.01692
G1 X116.237 Y107.373 E0.01692
G1 X116.437 Y106.872 E0.01692
G1 X116.729 Y106.418 E0.01692
G1 X117.101 Y106.027 E0.01692
G1 X117.541 Y105.714 E0.01692
G1 X118.031 Y105.490 E0.01692
G1 X118.556 Y105.363 E0.01692
G1 X119.095 Y105.337 E0.01692
G1 X119.629 Y105.414 E0.01692
G1 X120.139 Y105.591 E0.01692
G1 X120.606 Y105.860 E0.01692
G1 X121.029 Y106.233 E0.01766
G1 X120.950 Y106.663 F10800.000
G1 X120.782 Y106.466
G1 F934
G1 X121.057 Y106.825 E0.01087
G1 X121.271 Y107.247 E0.01139
G1 X121.410 Y107.700 E0.01139
G1 X121.460 Y108.172 E0.01142
G1 X121.410 Y108.644 E0.01142
G1 X121.273 Y109.099 E0.01140
G1 X121.176 Y109.316 E0.00573
G1 X121.057 Y109.520 E0.00568
G1 X120.766 Y109.895 E0.01140
G1 X120.394 Y110.219 E0.01187
G1 X119.996 Y110.441 E0.01096
G1 X119.547 Y110.594 E0.01140
G1 X119.277 Y110.646 E0.00661
G1 X119.078 Y110.663 E0.00480
G1 X118.604 Y110.645 E0.01141
G1 X118.090 Y110.514 E0.01275
G1 X117.713 Y110.331 E0.01008
G1 X117.557 Y110.235 E0.00442
G1 X117.328 Y110.056 E0.00700
G1 X117.104 Y109.840 E0.00748
G1 X116.999 Y109.714 E0.00393
G1 X116.738 Y109.318 E0.01141
G1 X116.565 Y108.875 E0.01143
G1 X116.479 Y108.409 E0.01140
G1 X116.481 Y107.936 E0.01139
G1 X116.539 Y107.561 E0.00912
G1 X116.738 Y107.026 E0.01372
G1 X116.999 Y106.630 E0.01141
G1 X117.328 Y106.289 E0.01140
G1 X117.529 Y106.129 E0.00617
G1 X117.713 Y106.013 E0.00524
G1 X118.143 Y105.813 E0.01141
G1 X118.641 Y105.694 E0.01231
G1 X119.078 Y105.682 E0.01052
G1 X119.277 Y105.698 E0.00480
G1 X119.547 Y105.751 E0.00661
G1 X119.994 Y105.906 E0.01139
G1 X120.391 Y106.124 E0.01088
G1 X120.738 Y106.425 E0.01103
M106 S255
;BEFORE_LAYER_CHANGE
G92 E0.0
;0.4


G1 F8640.000
G1 X121.057 Y106.825 E-0.11810
G1 X121.271 Y107.247 E-0.10936
G1 X121.410 Y107.700 E-0.10942
G1 X121.460 Y108.172 E-0.10965
G1 X121.410 Y108.644 E-0.10965
G1 X121.273 Y109.099 E-0.10946
G1 X121.176 Y109.316 E-0.05504
G1 X121.090 Y109.463 E-0.03932
G1 E-0.04000 F2100.00000
G1 Z0.800 F10800.000
;AFTER_LAYER_CHANGE
;0.4
M104 S210 ; set temperature
G1 X116.957 Y113.832
G1 Z0.400
G1 E0.80000 F2100.00000
G1 F1040
G1 X115.767 Y113.251 E0.04153
G1 X115.038 Y112.717 E0.02835
G1 X114.379 Y112.047 E0.02944
G1 X113.629 Y110.934 E0.04210
G1 X113.159 Y109.705 E0.04127
G1 X112.973 Y108.504 E0.03811
G1 X112.983 Y107.599 E0.02836
G1 X113.146 Y106.691 E0.02893
G1 X113.604 Y105.462 E0.04114
G1 X114.304 Y104.383 E0.04032
G1 X122.967 Y95.038 E0.39954
G1 X123.642 Y94.393 E0.02927
G1 X125.052 Y93.538 E0.05170
G1 X126.018 Y93.206 E0.03204
G1 X127.284 Y93.037 E0.04004
G1 X128.618 Y93.156 E0.04199
G1 X129.540 Y93.410 E0.03001
G1 X130.449 Y93.843 E0.03155
G1 X131.589 Y94.694 E0.04462
G1 X132.489 Y95.789 E0.04443
G1 X133.049 Y96.903 E0.03908
G1 X137.004 Y109.664 E0.41891
G1 X137.147 Y110.950 E0.04057
G1 X137.019 Y112.197 E0.03930
G1 X136.620 Y113.424 E0.04045
G1 X136.075 Y114.377 E0.03442
G1 X135.731 Y114.825 E0.01771
G1 X134.821 Y115.703 E0.03964
G1 X133.878 Y116.310 E0.03519
G1 X132.617 Y116.784 E0.04223
G1 X131.422 Y116.963 E0.03789
G1 X130.113 Y116.880 E0.04112
G1 X117.016 Y113.846 E0.42154
G1 X117.100 Y113.483 F10800.000
G1 F1040
G1 X115.980 Y112.940 E0.03900
G1 X115.273 Y112.423 E0.02747
G1 X114.659 Y111.794 E0.02758
G1 X113.964 Y110.762 E0.03899
G1 X113.524 Y109.619 E0.03841
G1 X113.347 Y108.488 E0.03589
G1 X113.359 Y107.631 E0.02686
G1 X113.517 Y106.758 E0.02782
G1 X113.949 Y105.612 E0.03840
G1 X114.593 Y104.624 E0.03698
G1 X123.881 Y94.685 E0.42654
G1 X125.182 Y93.892 E0.04775
G1 X126.095 Y93.575 E0.03029
G1 X127.285 Y93.414 E0.03766
G1 X128.523 Y93.521 E0.03895
G1 X129.408 Y93.764 E0.02879
G1 X130.274 Y94.177 E0.03010
G1 X131.335 Y94.973 E0.04156
G1 X132.174 Y95.998 E0.04155
G1 X132.691 Y97.020 E0.03590
G1 X136.635 Y109.739 E0.41753
G1 X136.770 Y110.952 E0.03828
G1 X136.649 Y112.125 E0.03696
G1 X136.273 Y113.278 E0.03803
G1 X135.757 Y114.174 E0.03243
G1 X135.459 Y114.564 E0.01538
